src/assets/inline-svgs/logos/instagram-logo.svg

<svg width="28" height="28" viewBox="0 0 28 28" fill="#277056;" xmlns="http://www.w3.org/2000/svg">
<g clip-path="url(#clip0)">
<path d="M14 2.52322C17.7404 2.52322 18.1795 2.5399 19.6578 2.60659C21.025 2.66773 21.7642 2.89559 22.2589 3.09012C22.9147 3.34577 23.3815 3.64589 23.8706 4.13497C24.3597 4.62406 24.6654 5.09091 24.9155 5.74672C25.1044 6.24137 25.3379 6.98055 25.399 8.34776C25.4657 9.82612 25.4824 10.2652 25.4824 14.0056C25.4824 17.7459 25.4657 18.185 25.399 19.6634C25.3379 21.0306 25.11 21.7698 24.9155 22.2644C24.6598 22.9202 24.3597 23.3871 23.8706 23.8761C23.3815 24.3652 22.9147 24.6709 22.2589 24.921C21.7642 25.11 21.025 25.3434 19.6578 25.4045C18.1795 25.4712 17.7404 25.4879 14 25.4879C10.2596 25.4879 9.82057 25.4712 8.34221 25.4045C6.975 25.3434 6.23581 25.1155 5.74117 24.921C5.08536 24.6653 4.6185 24.3652 4.12942 23.8761C3.64034 23.3871 3.33466 22.9202 3.08456 22.2644C2.8956 21.7698 2.66217 21.0306 2.60103 19.6634C2.53434 18.185 2.51767 17.7459 2.51767 14.0056C2.51767 10.2652 2.53434 9.82612 2.60103 8.34776C2.66217 6.98055 2.89004 6.24137 3.08456 5.74672C3.34022 5.09091 3.64034 4.62406 4.12942 4.13497C4.6185 3.64589 5.08536 3.34021 5.74117 3.09012C6.23581 2.90115 6.975 2.66773 8.34221 2.60659C9.82057 2.53434 10.2652 2.52322 14 2.52322ZM14 0C10.1985 0 9.72053 0.0166733 8.22549 0.0833664C6.73601 0.15006 5.71894 0.389043 4.8297 0.733624C3.90711 1.08932 3.12902 1.57285 2.35093 2.35093C1.57285 3.12902 1.09488 3.91266 0.733625 4.82969C0.389044 5.71894 0.15006 6.73601 0.0833665 8.23104C0.0166733 9.72052 0 10.1985 0 14C0 17.8015 0.0166733 18.2795 0.0833665 19.7745C0.15006 21.264 0.389044 22.2811 0.733625 23.1759C1.08932 24.0985 1.57285 24.8765 2.35093 25.6546C3.12902 26.4327 3.91267 26.9107 4.8297 27.2719C5.71894 27.6165 6.73601 27.8555 8.23105 27.9222C9.72609 27.9889 10.1985 28.0056 14.0056 28.0056C17.8126 28.0056 18.285 27.9889 19.7801 27.9222C21.2696 27.8555 22.2866 27.6165 23.1814 27.2719C24.104 26.9162 24.8821 26.4327 25.6602 25.6546C26.4383 24.8765 26.9163 24.0929 27.2775 23.1759C27.6221 22.2866 27.8611 21.2696 27.9278 19.7745C27.9945 18.2795 28.0111 17.8071 28.0111 14C28.0111 10.1929 27.9945 9.72052 27.9278 8.22549C27.8611 6.73601 27.6221 5.71894 27.2775 4.82414C26.9218 3.90155 26.4383 3.12346 25.6602 2.34538C24.8821 1.56729 24.0985 1.08932 23.1814 0.728067C22.2922 0.383486 21.2751 0.144502 19.7801 0.0778087C18.2795 0.0166733 17.8015 0 14 0Z" fill="#2B7C5F"/>
<path d="M14 6.81372C10.0317 6.81372 6.80823 10.0317 6.80823 14.0055C6.80823 17.9793 10.0262 21.1972 14 21.1972C17.9738 21.1972 21.1917 17.9793 21.1917 14.0055C21.1917 10.0317 17.9738 6.81372 14 6.81372ZM14 18.6684C11.4212 18.6684 9.33145 16.5787 9.33145 13.9999C9.33145 11.4211 11.4212 9.33139 14 9.33139C16.5788 9.33139 18.6685 11.4211 18.6685 13.9999C18.6685 16.5787 16.5788 18.6684 14 18.6684Z" fill="#2B7C5F"/>
<path d="M21.4752 8.20332C22.4022 8.20332 23.1536 7.45186 23.1536 6.52488C23.1536 5.5979 22.4022 4.84644 21.4752 4.84644C20.5482 4.84644 19.7968 5.5979 19.7968 6.52488C19.7968 7.45186 20.5482 8.20332 21.4752 8.20332Z" fill="#2B7C5F"/>
</g>
<defs>
<clipPath id="clip0">
<rect width="28" height="28" fill="white"/>
</clipPath>
</defs>
</svg>

<svg xmlns="http://www.w3.org/2000/svg" viewBox="0 0 28 28">
  <g fill="currentColor">
    <path d="M14 2.523c3.74 0 4.18.017 5.658.084 1.367.06 2.106.289 2.6.483a4.345 4.345 0 0 1 1.613 1.045c.489.49.794.956 1.045 1.612.188.494.422 1.234.483 2.6.067 1.48.083 1.918.083 5.659 0 3.74-.016 4.179-.083 5.657-.061 1.368-.289 2.107-.483 2.601a4.345 4.345 0 0 1-1.045 1.612c-.49.49-.956.795-1.612 1.045-.495.189-1.234.422-2.601.483-1.479.067-1.918.084-5.658.084s-4.18-.017-5.658-.084c-1.367-.06-2.106-.288-2.6-.483a4.346 4.346 0 0 1-1.613-1.045 4.277 4.277 0 0 1-1.044-1.612c-.19-.494-.423-1.233-.484-2.6-.067-1.479-.083-1.918-.083-5.658s.016-4.18.083-5.658c.061-1.367.289-2.107.484-2.601a4.345 4.345 0 0 1 1.044-1.612c.49-.49.956-.795 1.612-1.045.495-.189 1.234-.422 2.601-.483 1.479-.073 1.923-.084 5.658-.084ZM14 0c-3.802 0-4.28.017-5.775.083C6.736.15 5.72.39 4.83.733a6.84 6.84 0 0 0-2.48 1.618A6.945 6.945 0 0 0 .735 4.83C.389 5.719.15 6.736.084 8.23.016 9.721 0 10.198 0 14s.017 4.28.083 5.774c.067 1.49.306 2.507.65 3.402.356.923.84 1.7 1.618 2.479a6.944 6.944 0 0 0 2.479 1.617c.889.345 1.906.584 3.401.65 1.495.067 1.967.084 5.775.084 3.807 0 4.279-.017 5.774-.084 1.49-.067 2.507-.306 3.401-.65a6.85 6.85 0 0 0 2.48-1.617 6.944 6.944 0 0 0 1.616-2.48c.345-.888.584-1.905.65-3.4.067-1.495.084-1.968.084-5.775 0-3.807-.017-4.28-.083-5.775-.067-1.489-.306-2.506-.65-3.4a6.824 6.824 0 0 0-1.618-2.48A6.944 6.944 0 0 0 23.181.728c-.889-.345-1.906-.583-3.4-.65C18.278.017 17.8 0 14 0Z"/>
    <path d="M14 6.814a7.193 7.193 0 1 0 .002 14.385A7.193 7.193 0 0 0 14 6.814Zm0 11.854a4.668 4.668 0 1 1 0-9.337 4.668 4.668 0 1 1 0 9.337Zm7.475-10.465a1.678 1.678 0 1 0 0-3.356 1.678 1.678 0 0 0 0 3.356Z"/>
  </g>
</svg>
